images/icon-award-2.svg

<svg width="200" height="172" viewBox="0 0 200 172" fill="none" xmlns="http://www.w3.org/2000/svg">
<path d="M171.915 114.291C155.43 125.051 134.363 131.662 111.662 133.362L124.951 171.15L148.679 142.53L185.098 149.998L172.421 113.952C172.252 114.065 172.086 114.179 171.915 114.291Z" fill="#1E84B5"/>
<path d="M27.9926 114.291C27.8216 114.179 27.6556 114.064 27.4856 113.952L14.8086 149.998L51.2276 142.53L74.9546 171.15L88.2436 133.362C65.5436 131.662 44.4766 125.051 27.9926 114.291Z" fill="#1E84B5"/>
<path d="M99.9544 130.275C154.201 130.275 198.176 101.57 198.176 66.161C198.176 30.7518 154.201 2.047 99.9544 2.047C45.7079 2.047 1.73242 30.7518 1.73242 66.161C1.73242 101.57 45.7079 130.275 99.9544 130.275Z" stroke="#1E84B5" stroke-width="3" stroke-miterlimit="10" stroke-linecap="round" stroke-linejoin="round"/>
<path d="M99.9536 125.53C151.579 125.53 193.431 98.9496 193.431 66.161C193.431 33.3724 151.579 6.79199 99.9536 6.79199C48.3277 6.79199 6.47656 33.3724 6.47656 66.161C6.47656 98.9496 48.3277 125.53 99.9536 125.53Z" stroke="#1E84B5" stroke-width="2" stroke-miterlimit="10" stroke-linecap="round" stroke-linejoin="round"/>
<path d="M99.9536 115.531C54.7046 115.531 16.4766 92.923 16.4766 66.162C16.4766 39.401 54.7036 16.793 99.9536 16.793C145.204 16.793 183.432 39.401 183.432 66.162C183.432 92.922 145.204 115.531 99.9536 115.531Z" stroke="#1E84B5" stroke-miterlimit="10" stroke-linecap="round" stroke-linejoin="round"/>
<path d="M112.856 101.175C110.922 101.284 109.479 101.695 109.479 102.188C109.479 102.681 110.922 103.092 112.856 103.201C112.965 105.135 113.376 106.578 113.869 106.578C114.362 106.578 114.773 105.135 114.882 103.201C116.816 103.092 118.259 102.681 118.259 102.188C118.259 101.695 116.816 101.284 114.882 101.175C114.773 99.241 114.362 97.798 113.869 97.798C113.375 97.798 112.965 99.241 112.856 101.175Z" fill="#1E84B5"/>
<path d="M99.7214 103.201C101.655 103.092 103.098 102.681 103.098 102.188C103.098 101.695 101.655 101.284 99.7214 101.175C99.6124 99.241 99.2014 97.798 98.7084 97.798C98.2154 97.798 97.8044 99.241 97.6954 101.175C95.7614 101.284 94.3184 101.695 94.3184 102.188C94.3184 102.681 95.7614 103.092 97.6954 103.201C97.8044 105.135 98.2154 106.578 98.7084 106.578C99.2014 106.578 99.6124 105.135 99.7214 103.201Z" fill="#1E84B5"/>
<path d="M84.5612 103.201C86.4952 103.092 87.9382 102.681 87.9382 102.188C87.9382 101.695 86.4952 101.284 84.5612 101.175C84.4522 99.241 84.0412 97.798 83.5482 97.798C83.0552 97.798 82.6442 99.241 82.5352 101.175C80.6012 101.284 79.1582 101.695 79.1582 102.188C79.1582 102.681 80.6012 103.092 82.5352 103.201C82.6442 105.135 83.0552 106.578 83.5482 106.578C84.0412 106.578 84.4522 105.135 84.5612 103.201Z" fill="#1E84B5"/>
<path d="M8.55664 53.696H191.353C182.31 26.925 144.768 6.79199 99.9547 6.79199C55.1417 6.79199 17.5996 26.925 8.55664 53.696Z" fill="#1E84B5"/>
<path d="M43.82 32.503L42.264 35.349L39.418 36.905L42.264 38.461L43.82 41.307L45.377 38.461L48.223 36.905L45.377 35.349L43.82 32.503Z" fill="white"/>
<path d="M157.104 35.349L155.547 32.503L153.991 35.349L151.145 36.905L153.991 38.461L155.547 41.307L157.104 38.461L159.95 36.905L157.104 35.349Z" fill="white"/>
<path d="M55.2216 44.732C56.7536 43.6212 57.5196 41.9487 57.5196 39.7145V30.484L55.7578 30.0627V29.1817H61.637V30.0627L59.8751 30.484V39.7145C59.8751 41.0295 59.4602 42.2169 58.6304 43.2765C57.8133 44.3489 56.9004 45.1022 55.8918 45.5363L55.2216 44.732ZM62.6711 30.0627V29.1817H68.5503V30.0627L66.7885 30.484V37.5697C66.7885 38.8464 67.1013 39.8039 67.7268 40.4422C68.3652 41.0806 69.2206 41.3998 70.293 41.3998C71.3527 41.3998 72.2081 41.0806 72.8592 40.4422C73.5103 39.7911 73.8358 38.8336 73.8358 37.5697V30.484L72.0549 30.0627V29.1817H76.9574V30.0627L75.1955 30.484V37.5697C75.1955 38.4123 75.0615 39.1655 74.7934 39.8294C74.538 40.4933 74.1742 41.0487 73.7018 41.4955C73.2294 41.9424 72.6613 42.2871 71.9974 42.5296C71.3463 42.7595 70.6313 42.8744 69.8525 42.8744C69.061 42.8744 68.3333 42.7595 67.6694 42.5296C67.0055 42.2998 66.431 41.9615 65.9458 41.5147C65.4735 41.0551 65.1032 40.4997 64.8351 39.8486C64.567 39.1847 64.433 38.4251 64.433 37.5697V30.484L62.6711 30.0627ZM78.2221 42.5871V41.7062L79.9839 41.2849V30.484L78.2221 30.0627V29.1817H81.3244L89.3102 38.6612V30.484L87.5484 30.0627V29.1817H92.47V30.0627L90.7082 30.484V42.5871H89.5592L81.3244 32.8778V41.2849L83.0863 41.7062V42.5871H78.2221ZM93.9689 42.5871V41.7062L95.7307 41.2849V30.484L93.9689 30.0627V29.1817H103.946V33.1076H103.046L102.223 30.4648L98.0862 30.3116V35.2333L102.223 34.8694V36.5738L98.0862 36.2291V41.4572L102.587 41.304L103.563 38.4506H104.463L104.31 42.5871H93.9689ZM110.382 42.5871V41.4381L112.029 39.6762C112.412 39.2549 112.859 38.7187 113.37 38.0676C113.88 37.4165 114.327 36.7909 114.71 36.1908C115.093 35.578 115.419 34.9269 115.687 34.2375C115.968 33.5481 116.108 32.9225 116.108 32.3607C116.108 31.5947 115.917 30.9819 115.534 30.5223C115.163 30.0627 114.659 29.8329 114.021 29.8329L111.761 31.9011C111.072 31.3904 110.708 30.7074 110.669 29.852C111.908 29.2137 113.261 28.8945 114.729 28.8945C115.827 28.8945 116.734 29.1626 117.449 29.6988C118.176 30.2223 118.54 31.001 118.54 32.0352C118.54 32.7757 118.362 33.5544 118.004 34.3715C117.659 35.1759 117.161 35.9802 116.51 36.7845C115.872 37.5888 115.278 38.2782 114.729 38.8527C114.193 39.4273 113.561 40.0528 112.833 40.7295H117.41L118.445 38.6612H119.287L118.751 42.5871H110.382ZM126.183 28.8945C127.741 28.8945 128.973 29.5456 129.879 30.8478C130.798 32.1373 131.258 33.8162 131.258 35.8844C131.258 37.9271 130.798 39.606 129.879 40.921C128.973 42.2232 127.741 42.8744 126.183 42.8744C124.625 42.8744 123.387 42.2232 122.468 40.921C121.561 39.606 121.108 37.9271 121.108 35.8844C121.108 33.8289 121.561 32.1501 122.468 30.8478C123.387 29.5456 124.625 28.8945 126.183 28.8945ZM126.183 30.0244C125.353 30.0244 124.708 30.5925 124.249 31.7288C123.789 32.865 123.559 34.2502 123.559 35.8844C123.559 37.5186 123.789 38.9038 124.249 40.0401C124.708 41.1763 125.353 41.7445 126.183 41.7445C127.013 41.7445 127.658 41.1763 128.117 40.0401C128.577 38.9038 128.807 37.5186 128.807 35.8844C128.807 34.2502 128.577 32.865 128.117 31.7288C127.658 30.5925 127.013 30.0244 126.183 30.0244ZM132.787 42.5871V41.4381L134.434 39.6762C134.817 39.2549 135.264 38.7187 135.774 38.0676C136.285 37.4165 136.732 36.7909 137.115 36.1908C137.498 35.578 137.823 34.9269 138.091 34.2375C138.372 33.5481 138.513 32.9225 138.513 32.3607C138.513 31.5947 138.321 30.9819 137.938 30.5223C137.568 30.0627 137.064 29.8329 136.425 29.8329L134.166 31.9011C133.476 31.3904 133.112 30.7074 133.074 29.852C134.312 29.2137 135.666 28.8945 137.134 28.8945C138.232 28.8945 139.138 29.1626 139.853 29.6988C140.581 30.2223 140.945 31.001 140.945 32.0352C140.945 32.7757 140.766 33.5544 140.409 34.3715C140.064 35.1759 139.566 35.9802 138.915 36.7845C138.277 37.5888 137.683 38.2782 137.134 38.8527C136.598 39.4273 135.966 40.0528 135.238 40.7295H139.815L140.849 38.6612H141.692L141.156 42.5871H132.787ZM142.957 42.07L143.379 41.17C144.183 41.5274 145.006 41.7062 145.849 41.7062C146.87 41.7062 147.707 41.4125 148.358 40.8253C149.022 40.238 149.354 39.3953 149.354 38.2974C149.354 37.4292 149.092 36.7143 148.568 36.1525C148.045 35.578 147.266 35.2908 146.232 35.2908C145.785 35.2908 145.179 35.3737 144.413 35.5397L143.991 35.2908L144.547 29.1817H150.235L151.039 28.4157L151.805 28.7604L150.924 31.0202H145.638L145.351 34.2949C146.002 34.129 146.66 34.046 147.324 34.046C148.051 34.046 148.702 34.1736 149.277 34.429C149.864 34.6716 150.33 34.9971 150.675 35.4057C151.032 35.8014 151.301 36.2355 151.479 36.7079C151.658 37.1803 151.747 37.659 151.747 38.1442C151.747 39.5869 151.218 40.7359 150.158 41.5913C149.111 42.4467 147.879 42.8744 146.462 42.8744C145.032 42.8744 143.877 42.6126 142.996 42.0892L142.957 42.07Z" fill="white"/>
<path d="M42.6966 75.3268V74.5454L44.2594 74.1717V64.5913L42.6966 64.2176V63.4362H51.5466V66.9185H50.7482L50.0178 64.5743L46.3487 64.4384V68.804L50.0178 68.4812V69.993L46.3487 69.6873V74.3246L50.3405 74.1887L51.2069 71.6577H52.0052L51.8693 75.3268H42.6966ZM53.3408 75.3268V74.5454L54.9545 74.1547L55.4981 64.5743L54.0033 64.2176L54.0202 63.4362H57.6554L61.4773 72.3032L65.3333 63.4362H68.8325V64.2176L67.3037 64.5743L67.8812 74.1717L69.5119 74.5454V75.3268H64.348V74.5454L65.8429 74.1887L65.3842 66.1371L61.3584 75.4117H60.611L56.5343 66.1201L56.1096 74.1887L57.6214 74.5454V75.3268H53.3408ZM74.3831 69.7552C74.5529 69.7779 74.7228 69.7948 74.8927 69.8062C75.0625 69.8175 75.2267 69.8232 75.3853 69.8232C75.7703 69.8232 76.127 69.7665 76.4554 69.6533C76.7952 69.54 77.0839 69.3702 77.3217 69.1437C77.5709 68.9172 77.7634 68.6398 77.8993 68.3114C78.0352 67.983 78.1031 67.5979 78.1031 67.1563C78.1031 66.273 77.837 65.6105 77.3048 65.1689C76.7838 64.7272 76.0987 64.5064 75.2494 64.5064H74.3831V69.7552ZM70.731 75.3268V74.5454L72.2937 74.1717V64.5913L70.731 64.2176V63.4362H75.2494C78.5787 63.4362 80.2434 64.6762 80.2434 67.1563C80.2434 68.4133 79.8074 69.3532 78.9355 69.976C78.0748 70.5875 76.9367 70.8933 75.5212 70.8933C75.1248 70.8933 74.7455 70.865 74.3831 70.8084V74.1717L76.4554 74.5454V75.3268H70.731ZM81.3641 75.3268V74.5454L82.9269 74.1717V64.5913L81.3641 64.2176V63.4362H86.579V64.2176L85.0162 64.5913V74.1887H89.0081L89.9253 71.6577H90.7067L90.5368 75.3268H81.3641ZM97.674 63.1814C98.5912 63.1814 99.4009 63.3343 100.103 63.6401C100.805 63.9458 101.4 64.3705 101.887 64.9141C102.374 65.4576 102.742 66.1088 102.991 66.8675C103.24 67.6262 103.364 68.4586 103.364 69.3645C103.364 70.2818 103.24 71.1198 102.991 71.8785C102.753 72.6373 102.391 73.2941 101.904 73.849C101.428 74.3925 100.833 74.8172 100.12 75.1229C99.4179 75.4287 98.6026 75.5816 97.674 75.5816C96.6887 75.5816 95.8338 75.4174 95.109 75.089C94.3956 74.7606 93.8067 74.3189 93.3424 73.764C92.8781 73.1978 92.5327 72.5353 92.3062 71.7766C92.0911 71.0179 91.9835 70.2025 91.9835 69.3305C91.9835 68.4812 92.0967 67.6885 92.3232 66.9524C92.5497 66.205 92.8951 65.5539 93.3594 64.999C93.8237 64.4328 94.4126 63.9911 95.126 63.674C95.8507 63.3456 96.7001 63.1814 97.674 63.1814ZM97.674 64.1836C96.5189 64.1836 95.6412 64.6706 95.0411 65.6445C94.4522 66.607 94.1578 67.8527 94.1578 69.3815C94.1578 71.0009 94.4692 72.2749 95.092 73.2035C95.7262 74.1207 96.5868 74.5794 97.674 74.5794C98.7611 74.5794 99.6161 74.1207 100.239 73.2035C100.873 72.2749 101.19 71.0009 101.19 69.3815C101.19 67.8527 100.89 66.607 100.29 65.6445C99.701 64.6706 98.829 64.1836 97.674 64.1836ZM103.555 64.2176V63.4362H108.447V64.2176L107.343 64.4384L110.146 68.5662L112.66 64.5573L111.403 64.2176V63.4362H115.564V64.2176L114.002 64.5913L110.706 69.8401V74.1717L112.269 74.5454V75.3268H107.054V74.5454L108.617 74.1717V69.8911L104.931 64.5573L103.555 64.2176ZM116.266 75.3268V74.5454L117.829 74.1717V64.5913L116.266 64.2176V63.4362H125.116V66.9185H124.318L123.587 64.5743L119.918 64.4384V68.804L123.587 68.4812V69.993L119.918 69.6873V74.3246L123.91 74.1887L124.776 71.6577H125.575L125.439 75.3268H116.266ZM127.148 75.3268V74.5454L128.711 74.1717V64.5913L127.148 64.2176V63.4362H135.998V66.9185H135.2L134.469 64.5743L130.8 64.4384V68.804L134.469 68.4812V69.993L130.8 69.6873V74.3246L134.792 74.1887L135.658 71.6577H136.457L136.321 75.3268H127.148ZM147.771 63.1814C148.688 63.1814 149.498 63.3343 150.2 63.6401C150.902 63.9458 151.497 64.3705 151.984 64.9141C152.47 65.4576 152.839 66.1088 153.088 66.8675C153.337 67.6262 153.461 68.4586 153.461 69.3645C153.461 70.2818 153.337 71.1198 153.088 71.8785C152.85 72.6373 152.487 73.2941 152.001 73.849C151.525 74.3925 150.93 74.8172 150.217 75.1229C149.515 75.4287 148.699 75.5816 147.771 75.5816C146.786 75.5816 145.931 75.4174 145.206 75.089C144.492 74.7606 143.904 74.3189 143.439 73.764C142.975 73.1978 142.63 72.5353 142.403 71.7766C142.188 71.0179 142.08 70.2025 142.08 69.3305C142.08 68.4812 142.194 67.6885 142.42 66.9524C142.647 66.205 142.992 65.5539 143.456 64.999C143.921 64.4328 144.509 63.9911 145.223 63.674C145.948 63.3456 146.797 63.1814 147.771 63.1814ZM147.771 64.1836C146.616 64.1836 145.738 64.6706 145.138 65.6445C144.549 66.607 144.255 67.8527 144.255 69.3815C144.255 71.0009 144.566 72.2749 145.189 73.2035C145.823 74.1207 146.684 74.5794 147.771 74.5794C148.858 74.5794 149.713 74.1207 150.336 73.2035C150.97 72.2749 151.287 71.0009 151.287 69.3815C151.287 67.8527 150.987 66.607 150.387 65.6445C149.798 64.6706 148.926 64.1836 147.771 64.1836ZM154.851 75.3268V74.5454L156.413 74.1717V64.5913L154.851 64.2176V63.4362H163.616V66.9185H162.834L162.121 64.5743L158.503 64.4384V68.787L162.172 68.4812V69.993L158.503 69.7043V74.1717L160.405 74.5454V75.3268H154.851Z" fill="#1E84B5"/>
<path d="M49.9764 84.0634V80.4622H60.0834V84.0634H59.285L58.5206 81.6003L56.0745 81.4644V91.1977L57.6373 91.5714V92.3528H52.4224V91.5714L53.9852 91.1977V81.4644L51.5222 81.6003L50.7748 84.0634H49.9764ZM61.345 92.3528V91.5714L62.9078 91.1977V81.6173L61.345 81.2436V80.4622H66.5599V81.2436L64.9971 81.6173V85.779H70.2459V81.6173L68.6832 81.2436V80.4622H73.898V81.2436L72.3353 81.6173V91.1977L73.898 91.5714V92.3528H68.6832V91.5714L70.2459 91.1977V86.9171H64.9971V91.1977L66.5599 91.5714V92.3528H61.345ZM75.3954 92.3528V91.5714L76.9581 91.1977V81.6173L75.3954 81.2436V80.4622H84.2453V83.9445H83.447L82.7165 81.6003L79.0475 81.4644V85.83L82.7165 85.5072V87.019L79.0475 86.7133V91.3506L83.0393 91.2147L83.9056 88.6837H84.704L84.5681 92.3528H75.3954ZM89.971 92.3528V91.5714L91.5847 91.1807L92.1283 81.6003L90.6334 81.2436L90.6504 80.4622H94.2855L98.1075 89.3292L101.963 80.4622H105.463V81.2436L103.934 81.6003L104.511 91.1977L106.142 91.5714V92.3528H100.978V91.5714L102.473 91.2147L102.014 83.1631L97.9886 92.4377H97.2412L93.1644 83.1461L92.7398 91.2147L94.2516 91.5714V92.3528H89.971ZM112.922 80.2074C113.839 80.2074 114.649 80.3603 115.351 80.6661C116.053 80.9718 116.647 81.3965 117.134 81.9401C117.621 82.4836 117.989 83.1348 118.239 83.8935C118.488 84.6522 118.612 85.4846 118.612 86.3905C118.612 87.3078 118.488 88.1458 118.239 88.9045C118.001 89.6633 117.638 90.3201 117.151 90.875C116.676 91.4185 116.081 91.8432 115.368 92.1489C114.666 92.4547 113.85 92.6076 112.922 92.6076C111.937 92.6076 111.082 92.4434 110.357 92.115C109.643 91.7866 109.054 91.3449 108.59 90.79C108.126 90.2238 107.78 89.5613 107.554 88.8026C107.339 88.0439 107.231 87.2285 107.231 86.3565C107.231 85.5072 107.344 84.7145 107.571 83.9784C107.797 83.231 108.143 82.5799 108.607 82.025C109.071 81.4588 109.66 81.0171 110.374 80.7C111.099 80.3716 111.948 80.2074 112.922 80.2074ZM112.922 81.2096C111.767 81.2096 110.889 81.6966 110.289 82.6705C109.7 83.633 109.406 84.8787 109.406 86.4075C109.406 88.0269 109.717 89.3009 110.34 90.2295C110.974 91.1467 111.835 91.6054 112.922 91.6054C114.009 91.6054 114.864 91.1467 115.487 90.2295C116.121 89.3009 116.438 88.0269 116.438 86.4075C116.438 84.8787 116.138 83.633 115.538 82.6705C114.949 81.6966 114.077 81.2096 112.922 81.2096ZM120.002 92.3528V91.5714L121.564 91.1977V81.6173L120.002 81.2436V80.4622H122.753L129.837 88.8706V81.6173L128.274 81.2436V80.4622H132.639V81.2436L131.077 81.6173V92.3528H130.058L122.753 83.7406V91.1977L124.316 91.5714V92.3528H120.002ZM133.731 84.0634V80.4622H143.838V84.0634H143.04L142.275 81.6003L139.829 81.4644V91.1977L141.392 91.5714V92.3528H136.177V91.5714L137.74 91.1977V81.4644L135.277 81.6003L134.529 84.0634H133.731ZM145.1 92.3528V91.5714L146.662 91.1977V81.6173L145.1 81.2436V80.4622H150.315V81.2436L148.752 81.6173V85.779H154.001V81.6173L152.438 81.2436V80.4622H157.653V81.2436L156.09 81.6173V91.1977L157.653 91.5714V92.3528H152.438V91.5714L154.001 91.1977V86.9171H148.752V91.1977L150.315 91.5714V92.3528H145.1Z" fill="#1E84B5"/>
</svg>

<svg xmlns="http://www.w3.org/2000/svg" width="200" height="172" fill="none" viewBox="0 0 200 172"><path fill="#1e84b5" d="M171.915 114.291c-16.485 10.76-37.552 17.371-60.253 19.071l13.289 37.788 23.728-28.62 36.419 7.468-12.677-36.046zm-143.922 0c-.171-.112-.337-.227-.507-.339l-12.677 36.046 36.419-7.468 23.727 28.62 13.289-37.788c-22.7-1.7-43.767-8.311-60.251-19.071"/><path stroke="#1e84b5" stroke-linecap="round" stroke-linejoin="round" stroke-miterlimit="10" stroke-width="3" d="M99.954 130.275c54.247 0 98.222-28.705 98.222-64.114S154.201 2.047 99.954 2.047 1.732 30.752 1.732 66.161s43.976 64.114 98.222 64.114"/><path stroke="#1e84b5" stroke-linecap="round" stroke-linejoin="round" stroke-miterlimit="10" stroke-width="2" d="M99.954 125.53c51.625 0 93.477-26.58 93.477-59.369S151.579 6.792 99.954 6.792 6.477 33.372 6.477 66.161s41.85 59.369 93.477 59.369"/><path stroke="#1e84b5" stroke-linecap="round" stroke-linejoin="round" stroke-miterlimit="10" d="M99.954 115.531c-45.25 0-83.477-22.608-83.477-49.369s38.227-49.369 83.477-49.369 83.478 22.608 83.478 49.369-38.228 49.369-83.478 49.369"/><path fill="#1e84b5" d="M112.856 101.175c-1.934.109-3.377.52-3.377 1.013s1.443.904 3.377 1.013c.109 1.934.52 3.377 1.013 3.377s.904-1.443 1.013-3.377c1.934-.109 3.377-.52 3.377-1.013s-1.443-.904-3.377-1.013c-.109-1.934-.52-3.377-1.013-3.377-.494 0-.904 1.443-1.013 3.377m-13.135 2.026c1.934-.109 3.377-.52 3.377-1.013s-1.443-.904-3.377-1.013c-.109-1.934-.52-3.377-1.013-3.377s-.904 1.443-1.013 3.377c-1.934.109-3.377.52-3.377 1.013s1.443.904 3.377 1.013c.11 1.934.52 3.377 1.013 3.377s.904-1.443 1.013-3.377m-15.16 0c1.934-.109 3.377-.52 3.377-1.013s-1.443-.904-3.377-1.013c-.109-1.934-.52-3.377-1.013-3.377s-.904 1.443-1.013 3.377c-1.934.109-3.377.52-3.377 1.013s1.443.904 3.377 1.013c.11 1.934.52 3.377 1.013 3.377s.904-1.443 1.013-3.377M8.557 53.696h182.796C182.31 26.925 144.768 6.792 99.955 6.792S17.6 26.925 8.557 53.696"/><path fill="#fff" d="m43.82 32.503-1.556 2.846-2.846 1.556 2.846 1.556 1.556 2.846 1.557-2.846 2.846-1.556-2.846-1.556zm113.284 2.846-1.557-2.846-1.556 2.846-2.846 1.556 2.846 1.556 1.556 2.846 1.557-2.846 2.846-1.556z"/><path fill="#fff" d="M55.222 44.732q2.298-1.666 2.298-5.017v-9.231l-1.762-.421v-.881h5.879v.88l-1.762.422v9.23q0 1.974-1.245 3.563-1.226 1.608-2.738 2.26zm7.45-14.67v-.88h5.878v.88l-1.761.422v7.086q0 1.915.938 2.872.958.958 2.566.958 1.59 0 2.566-.958.977-.975.977-2.872v-7.086l-1.781-.421v-.881h4.902v.88l-1.761.422v7.086q0 1.264-.403 2.26a4.46 4.46 0 0 1-1.091 1.666 4.9 4.9 0 0 1-1.705 1.034 6.4 6.4 0 0 1-2.144.344q-1.188 0-2.184-.344a4.9 4.9 0 0 1-1.723-1.015 4.9 4.9 0 0 1-1.11-1.666q-.403-.996-.403-2.28v-7.085zm15.55 12.525v-.88l1.762-.422V30.484l-1.762-.421v-.881h3.102l7.986 9.48v-8.178l-1.762-.421v-.881h4.922v.88l-1.762.422v12.103H89.56l-8.235-9.71v8.408l1.762.421v.881zm15.747 0v-.88l1.762-.422V30.484l-1.762-.421v-.881h9.977v3.926h-.9l-.823-2.643-4.137-.153v4.921l4.137-.364v1.705l-4.137-.345v5.228l4.501-.153.976-2.853h.9l-.153 4.136zm16.413 0v-1.149l1.647-1.762q.575-.631 1.341-1.608.765-.977 1.34-1.877a11.6 11.6 0 0 0 .977-1.954q.421-1.034.421-1.876 0-1.15-.574-1.839-.556-.69-1.513-.69l-2.26 2.07q-1.033-.768-1.092-2.05 1.858-.957 4.06-.957 1.647 0 2.72.804 1.09.785 1.091 2.336 0 1.11-.536 2.337-.517 1.206-1.494 2.413a30 30 0 0 1-1.781 2.068q-.804.861-1.896 1.877h4.577l1.035-2.069h.842l-.536 3.926zm15.801-13.693q2.337 0 3.696 1.954 1.379 1.934 1.379 5.036 0 3.064-1.379 5.037-1.359 1.953-3.696 1.953t-3.715-1.953q-1.36-1.972-1.36-5.037 0-3.083 1.36-5.036 1.378-1.953 3.715-1.953m0 1.13q-1.245 0-1.934 1.705-.69 1.704-.69 4.155t.69 4.156q.689 1.704 1.934 1.705 1.245 0 1.934-1.705.69-1.704.69-4.156t-.69-4.155q-.689-1.704-1.934-1.705m6.604 12.563v-1.149l1.647-1.762q.575-.631 1.34-1.608.767-.977 1.341-1.877.574-.92.976-1.954.422-1.034.422-1.876 0-1.15-.575-1.839-.555-.69-1.513-.69l-2.259 2.07q-1.035-.768-1.092-2.05 1.858-.957 4.06-.957 1.647 0 2.719.804 1.092.785 1.092 2.336 0 1.11-.536 2.337-.517 1.206-1.494 2.413a30 30 0 0 1-1.781 2.068q-.804.861-1.896 1.877h4.577l1.034-2.069h.843l-.536 3.926zm10.17-.517.422-.9a6 6 0 0 0 2.47.536q1.532 0 2.509-.88.996-.881.996-2.529 0-1.302-.786-2.144-.785-.862-2.336-.862-.67 0-1.819.249l-.422-.25.556-6.108h5.688l.804-.766.766.344-.881 2.26h-5.286l-.287 3.275a8 8 0 0 1 1.973-.249q1.09 0 1.953.383.88.364 1.398.977a4.1 4.1 0 0 1 1.072 2.738q0 2.164-1.589 3.447-1.57 1.283-3.696 1.283-2.145 0-3.466-.785z"/><path fill="#1e84b5" d="M42.697 75.327v-.782l1.562-.373v-9.58l-1.562-.374v-.782h8.85v3.482h-.799l-.73-2.344-3.67-.136v4.366l3.67-.323v1.512l-3.67-.306v4.638l3.992-.136.867-2.531h.798l-.136 3.669zm10.644 0v-.782l1.614-.39.543-9.58-1.495-.357.017-.782h3.635l3.822 8.867 3.856-8.867h3.5v.782l-1.53.356.578 9.598 1.63.373v.782h-5.163v-.782l1.495-.356-.459-8.052-4.026 9.275h-.747l-4.077-9.292-.424 8.069 1.511.356v.782zm21.042-5.572a8 8 0 0 0 1.002.068q.578 0 1.07-.17.51-.17.867-.51a2.3 2.3 0 0 0 .577-.832q.204-.492.204-1.155 0-1.325-.798-1.987-.781-.663-2.056-.663h-.866zm-3.652 5.572v-.782l1.563-.373v-9.58l-1.563-.374v-.782h4.518q4.994 0 4.994 3.72 0 1.886-1.307 2.82-1.292.917-3.415.917a7.4 7.4 0 0 1-1.138-.085v3.364l2.072.373v.782zm10.633 0v-.782l1.563-.373v-9.58l-1.563-.374v-.782h5.215v.782l-1.563.373v9.598h3.992l.917-2.531h.782l-.17 3.669zm16.31-12.146q1.376 0 2.429.46 1.053.458 1.784 1.273a5.4 5.4 0 0 1 1.104 1.954q.373 1.137.373 2.497 0 1.376-.373 2.514a5.4 5.4 0 0 1-1.087 1.97 4.9 4.9 0 0 1-1.784 1.274q-1.053.459-2.446.459-1.478 0-2.565-.493a5 5 0 0 1-1.767-1.325 5.6 5.6 0 0 1-1.036-1.987 9 9 0 0 1-.322-2.447q0-1.273.34-2.378A5.5 5.5 0 0 1 93.358 65a4.7 4.7 0 0 1 1.767-1.325q1.087-.492 2.548-.493m0 1.003q-1.733 0-2.633 1.46-.883 1.445-.883 3.737 0 2.43.934 3.823.951 1.375 2.582 1.375t2.565-1.375q.951-1.394.951-3.822 0-2.294-.9-3.738-.884-1.46-2.616-1.46m5.881.034v-.782h4.892v.782l-1.104.22 2.803 4.128 2.514-4.009-1.257-.34v-.78h4.161v.78l-1.562.374-3.296 5.25v4.33l1.563.374v.782h-5.215v-.782l1.563-.373v-4.28l-3.686-5.335zm12.711 11.109v-.782l1.563-.373v-9.58l-1.563-.374v-.782h8.85v3.482h-.798l-.731-2.344-3.669-.136v4.366l3.669-.323v1.512l-3.669-.306v4.638l3.992-.136.866-2.531h.799l-.136 3.669zm10.882 0v-.782l1.563-.373v-9.58l-1.563-.374v-.782h8.85v3.482h-.798l-.731-2.344-3.669-.136v4.366l3.669-.323v1.512l-3.669-.306v4.638l3.992-.136.866-2.531h.799l-.136 3.669zm20.623-12.146q1.376 0 2.429.46 1.053.458 1.784 1.273a5.4 5.4 0 0 1 1.104 1.954q.373 1.137.373 2.497 0 1.376-.373 2.514A5.4 5.4 0 0 1 152 73.85a4.9 4.9 0 0 1-1.784 1.274q-1.053.459-2.446.459-1.477 0-2.565-.493a5 5 0 0 1-1.767-1.325 5.7 5.7 0 0 1-1.036-1.987 9 9 0 0 1-.323-2.447q0-1.273.34-2.378A5.5 5.5 0 0 1 143.456 65a4.7 4.7 0 0 1 1.767-1.325q1.087-.492 2.548-.493m0 1.003q-1.733 0-2.633 1.46-.883 1.445-.883 3.737 0 2.43.934 3.823.951 1.375 2.582 1.375t2.565-1.375q.951-1.394.951-3.822 0-2.294-.9-3.738-.884-1.46-2.616-1.46m7.08 11.143v-.782l1.562-.373v-9.58l-1.562-.374v-.782h8.765v3.482h-.782l-.713-2.344-3.618-.136v4.349l3.669-.306v1.512l-3.669-.289v4.468l1.902.373v.782zM49.976 84.063v-3.6h10.107v3.6h-.798l-.764-2.463-2.447-.136v9.734l1.563.373v.782h-5.215v-.782l1.563-.373v-9.734l-2.463.136-.747 2.463zm11.369 8.29v-.782l1.563-.373v-9.58l-1.563-.374v-.782h5.215v.782l-1.563.373v4.162h5.249v-4.162l-1.563-.373v-.782h5.215v.782l-1.563.373v9.58l1.563.374v.782h-5.215v-.782l1.563-.373v-4.28h-5.249v4.28l1.563.373v.782zm14.05 0v-.782l1.563-.373v-9.58l-1.563-.374v-.782h8.85v3.483h-.798l-.73-2.345-3.67-.136v4.366l3.67-.323v1.512l-3.67-.306v4.638l3.992-.136.867-2.531h.798l-.136 3.669zm14.576 0v-.782l1.614-.39.543-9.58-1.495-.357.017-.782h3.635l3.823 8.867 3.855-8.867h3.5v.782l-1.529.356.577 9.598 1.631.373v.782h-5.164v-.782l1.495-.356-.459-8.052-4.025 9.275h-.748l-4.077-9.292-.424 8.069 1.512.356v.782zm22.951-12.146q1.376 0 2.429.46 1.053.458 1.783 1.273a5.4 5.4 0 0 1 1.105 1.954q.373 1.137.373 2.496 0 1.377-.373 2.514a5.4 5.4 0 0 1-1.088 1.971 4.9 4.9 0 0 1-1.783 1.274q-1.054.459-2.446.459-1.478 0-2.565-.493a5 5 0 0 1-1.767-1.325 5.6 5.6 0 0 1-1.036-1.987 9 9 0 0 1-.323-2.447q0-1.273.34-2.378a5.5 5.5 0 0 1 1.036-1.953 4.7 4.7 0 0 1 1.767-1.325q1.087-.492 2.548-.493m0 1.003q-1.733 0-2.633 1.46-.883 1.445-.883 3.737 0 2.43.934 3.823.951 1.375 2.582 1.375t2.565-1.376q.951-1.392.951-3.822 0-2.293-.9-3.736-.884-1.461-2.616-1.461m7.08 11.143v-.782l1.562-.373v-9.58l-1.562-.374v-.782h2.751l7.084 8.409v-7.254l-1.563-.373v-.782h4.365v.782l-1.562.373v10.736h-1.019l-7.305-8.612v7.457l1.563.373v.782zm13.729-8.29v-3.6h10.107v3.6h-.798l-.765-2.463-2.446-.136v9.734l1.563.373v.782h-5.215v-.782l1.563-.373v-9.734l-2.463.136-.748 2.463zm11.369 8.29v-.782l1.562-.373v-9.58l-1.562-.374v-.782h5.215v.782l-1.563.373v4.162h5.249v-4.162l-1.563-.373v-.782h5.215v.782l-1.563.373v9.58l1.563.374v.782h-5.215v-.782l1.563-.373v-4.28h-5.249v4.28l1.563.373v.782z"/></svg>
